X: 7
T: Gideon was a Soldier
C: Edward Huws Jones
M: 4/4
K: D
L: 1/4
Q: 1/4=108 Bluesy
!mf!D2 D2 | D F G F | D2 D2 | D F G F |
w: Gi-deon was a sol-dier, brave man, no one bol-der,
D2 D2 D E F G A2 z2 | z2 |
w: Lord said "Beat that Mi-dian-ite!
A D D D | A2 z2 | G D D D | G2 z2
w: Choose your men with care: see that ri-ver there?
F D D D | E D F E | D2 z2 | z4 |]
w: Those who drop their swords to drink don't fight."

